X:2020
T:Boys of the Lough, The
R:reel
D:Matt Molloy: First Album
Z:id:hn-reel-512
M:C|
K:D
AF~F2 AFAB|d2fd efdB|AF~F2 dBAF|~E3F EFGB|
AF~F2 AFAB|defd efdB|AF~F2 dFAF|EDEF D4:|
dfaf gfef|defd BcdB|AF~F2 dFAF|~E3F EFGE|
dfaf gfef|defd BcdB|AF~F2 dFAF|EDEF D4|
dfaf gfef|defd e2dB|AF~F2 ABde|fdgf e2fg|
afge f2ec|defd BcdB|AF~F2 dFAF|EDEF D4||
"variations"
AF~F2 AFAB|defd BcdB|AF~F2 dFAF|GEED EFGB|
AF~F2 AFAB|d2fd BcdB|A2FA dBAF|EGFE D4:|
dfaf gfef|defd e2dB|AF~F2 dBAF|FDGF ~E3F|
dfaf gfef|defd e2dB|AF~F2 dBAF|EGFE D4|
dfaf gfef|defd e2dB|AF~F2 ABde|fedf e2fg|
afge fdec|d2fd e2dB|AF~F2 dBAF|EGFE D4||


